src/actions/24/call-start.svg

<svg xmlns="http://www.w3.org/2000/svg" viewBox="0 0 24 24">
  <defs id="defs3051">
    <style type="text/css" id="current-color-scheme">
      .ColorScheme-Text {
        color:#2e3440;
      }
      </style>
  </defs>
 <path style="fill:currentColor;fill-opacity:1;stroke:none" 
     d="M 5.984375 4.0039062 C 5.6045825 4.0384326 5.328125 4.3144531 5.328125 4.3144531 L 4.6210938 5.0214844 L 4.2207031 5.421875 C 3.6301531 7.733025 4.2203364 10.275997 6.0351562 12.091797 L 11.908203 17.964844 C 13.724253 19.780894 16.266975 20.369847 18.578125 19.779297 L 18.978516 19.378906 L 19.685547 18.671875 C 19.685547 18.671875 20.392657 17.964933 19.685547 17.257812 L 16.644531 14.216797 C 15.937421 13.509687 15.230469 14.216797 15.230469 14.216797 L 14.876953 14.570312 C 14.289343 15.157924 13.343459 15.157912 12.755859 14.570312 L 9.4296875 11.244141 C 8.8420975 10.656551 8.8420775 9.7106669 9.4296875 9.1230469 L 9.7832031 8.7695312 C 9.7832031 8.7695312 10.490303 8.0625788 9.7832031 7.3554688 L 6.7421875 4.3144531 C 6.4770212 4.0492906 6.2122505 3.9831904 5.984375 4.0039062 z "
     class="ColorScheme-Text"
     />
</svg>

<svg viewBox="0 0 24 24" xmlns="http://www.w3.org/2000/svg">
 <defs>
  <style type="text/css">.ColorScheme-Text {
        color:#2e3440;
      }</style>
 </defs>
 <path class="ColorScheme-Text" d="m5.9844 4.0039c-0.37979 0.034526-0.65625 0.31055-0.65625 0.31055l-1.1074 1.1074c-0.59055 2.3112-3.667e-4 4.8541 1.8145 6.6699l5.873 5.873c1.816 1.816 4.3588 2.405 6.6699 1.8145l1.1074-1.1074s0.70711-0.70694 0-1.4141l-3.041-3.041c-0.70711-0.70711-1.4141 0-1.4141 0l-0.35352 0.35352c-0.58761 0.58761-1.5335 0.5876-2.1211 0l-3.3262-3.3262c-0.58759-0.58759-0.58761-1.5335 0-2.1211l0.35352-0.35352s0.7071-0.70695 0-1.4141l-3.041-3.041c-0.26517-0.26516-0.52994-0.33126-0.75781-0.31055z" fill="currentColor"/>
</svg>
